X:1
T:The Morning Draweth Nigh
T:The Morning Draweth Nigh
T:John Robson Sweney
T:Frances Jane (Fanny) Crosby, 1889
T:Public Domain Courtesy of the Cyber Hymnal™
C:John Robson Sweney
Z:Public Domain
Z:Courtesy of the Cyber Hymnal™
%%score ( 1 2 ) ( 3 4 )
L:1/8
Q:1/4=113
M:4/4
K:Ab
V:1 treble 
V:2 treble 
V:3 bass 
V:4 bass 
V:1
 [CE]2 | [CE][Ec][Ec][Ec] [Ec]2 [CA][Ec] | [DB][DA][DA][DF] [CA]3 [CE] | %3
w: 1.~Oh,|ral- ly round the stand- ard Of|Christ, our roy- al king; Oh,|
w: 2.~Though|long and deep the sha- dows The|drear- y night may bring, Our|
w: 3.~To|yon- der gold- en re- gion Our|faith now plumes her wing; Our|
w: 4.~To|Him who paid our ran- som, And|took from death the sting, Be|
 [B,E][Gd][Gd][Gd] [Gd]2 [Ec][EB] | [Ec][Ee][Ee][Ec] [EB]2 || %5
w: ral- ly round His stand- ard, And|hal- le- lu- jahs sing.|
w: lamps are trimmed and burn- ing, Our|hal- le- lu- jahs ring.|
w: hearts with joy are bound- ing, And|hal- le- lu- jahs ring.|
w: ev- er- last- ing prais- es, Let|hal- le- lu- jahs ring.|
"^Refrain" [Ec]>[DB] [CA]4- [CA][Ec][CA][DF] | [CE]6 [CE][EA] | [EG]4- [EG][Bd][Ac][GB] | %8
w: |||
w: |||
w: For the morn- * ing draw- eth|nigh, For the|morn- * ing draw- eth|
w: |||
 [Ac]6 [Ec][DB] | [CA]4- [CA][CA][Ec][_Ge] | [Fe]2 [Fd]4 [Fc][FB] | %11
w: |||
w: |||
w: nigh; We can|see * it in the|dis- tance, We shall|
w: |||
 [EA][EA][CE][EA] [Ac][Ac][GB][Ac] | A8 |] %13
w: ||
w: ||
w: hear it, we shall hear it by and|by.|
w: ||
V:2
 x2 | x8 | x8 | x8 | x6 || x10 | x8 | x8 | x8 | x8 | x8 | x8 | (E2 FF E4) |] %13
V:3
 [A,,A,]2 | [A,,A,][A,,A,][A,,A,][A,,A,] [A,,A,]2 [A,,E,][A,,A,] | %2
 [D,F,][D,F,][D,F,][D,F,] [A,,E,]3 [A,,A,] | [E,G,][E,B,][E,B,][E,B,] [E,B,]2 [E,A,][E,G,] | %4
 A,[A,C][A,C]A, [E,G,]2 || [E,G,]>[E,G,] ([A,,A,][A,,E,][A,,E,][A,,E,] [A,,E,]2) [A,,E,][A,,A,] | %6
 ([A,,A,][A,,A,][A,,A,][A,,A,] [A,,A,]2) [A,,A,][A,,C] | %7
 ([E,B,][E,B,][E,B,][E,B,] [E,B,])[E,B,][E,E][E,E] | ([A,E][A,E][A,E][A,E] [A,E]2) z2 | %9
 z2 ([A,,E,][A,,E,] [A,,E,])[A,,E,][A,,A,][C,A,] | %10
 ([D,A,][D,A,]) ([D,A,][D,A,][D,A,][D,A,])[D,A,][D,A,] | %11
 [E,C][E,C][E,A,][E,C] [E,E][E,E][E,D][E,E] | (C2 DD C4) |] %13
V:4
 x2 | x8 | x8 | x8 | x6 || x10 | x8 | x8 | x8 | x8 | x8 | x8 | A,,8 |] %13

